X:1     %Music
T:O ru, ru, ru
B:Singing Together, Autumn 1977, BBC Publications
F:http://www.folkinfo.org/songs
N:As this is Mexican in origin, I do not know if the original lyrics were English or Spanish
M:3/4     %Meter
L:1/8     %
K:G
B d B |d2 (cA) cA |c2 BB dB |d2 cA cA | c2 B4-|B2 z
w:O ru, ru, ru, my_ lit-tle Je-su, Ru, ru, ru, ru, close your eyes and slum-ber. *
 B BA |GF EF GA |B2 BB BA | GF EF GA |B6-|B2 z
w: Be still all beasts, do not dis-turb His sleep, El-e-phant, mos-qui-to, do not make a sound! *
 B dB |d2 cA cA | c2 BB dB |d2 cA cA |(c2 B4-|B3) z3 |]
w: O ru, ru, ru, my_ lit-tle Je-su, Ru, ru, ru, ru, close your eyes in sleep. *
